media/clkcog.svg

<svg xmlns="http://www.w3.org/2000/svg" width="360" height="360" viewBox="0 0 360 360"><path fill="rgba(255,255,255,0.2)" stroke="#000" stroke-miterlimit="10" d="M165.863 72c0-7.808 6.33-14.137 14.137-14.137s14.137 6.33 14.137 14.137m-28.434.021c2.021 7.542-2.455 15.294-9.996 17.314s-15.294-2.455-17.314-9.997m-24.635 14.199c-3.904-6.76-1.587-15.407 5.174-19.311 6.762-3.904 15.407-1.587 19.312 5.175m-24.615 14.235c5.521 5.521 5.521 14.473.001 19.992-5.52 5.521-14.473 5.521-19.993-.001m-14.236 24.615c-6.761-3.903-9.077-12.549-5.174-19.311 3.903-6.762 12.548-9.078 19.311-5.174m-14.198 24.635c7.541 2.021 12.018 9.773 9.996 17.313-2.02 7.54-9.772 12.018-17.314 9.996m-.022 28.436c-7.806-.001-14.135-6.33-14.136-14.138 0-7.808 6.328-14.136 14.137-14.136m.02 28.433c7.543-2.021 15.295 2.456 17.314 9.996 2.021 7.54-2.454 15.294-9.997 17.315m14.2 24.635c-6.761 3.902-15.406 1.586-19.312-5.176-3.903-6.762-1.588-15.406 5.175-19.311m14.236 24.614c5.521-5.521 14.474-5.52 19.992 0 5.521 5.52 5.522 14.473 0 19.994m24.614 14.236c-3.902 6.761-12.549 9.077-19.312 5.173-6.762-3.904-9.078-12.549-5.174-19.312m24.636 14.198c2.021-7.543 9.775-12.016 17.313-9.996 7.541 2.02 12.019 9.773 9.997 17.316m28.434.022c.002 7.805-6.328 14.135-14.137 14.135-7.809-.002-14.137-6.328-14.137-14.139m28.434-.021c-2.021-7.543 2.457-15.291 9.996-17.311 7.541-2.023 15.295 2.453 17.314 9.996m24.635-14.199c3.905 6.76 1.589 15.406-5.174 19.311-6.764 3.902-15.407 1.588-19.312-5.176m24.613-14.235c-5.521-5.523-5.518-14.473.002-19.99 5.519-5.523 14.473-5.523 19.992-.002m14.236-24.614c6.762 3.903 9.079 12.548 5.174 19.312-3.906 6.761-12.548 9.078-19.312 5.174m14.197-24.636c-7.543-2.021-12.014-9.773-9.993-17.312 2.019-7.543 9.772-12.02 17.313-9.998m.022-28.434c7.807.001 14.135 6.327 14.137 14.138-.004 7.808-6.328 14.136-14.14 14.136m-.021-28.434c-7.544 2.021-15.29-2.456-17.311-9.995-2.022-7.542 2.454-15.296 9.996-17.316m-14.199-24.636c6.761-3.902 15.404-1.587 19.312 5.176 3.9 6.764 1.588 15.406-5.178 19.312m-14.235-24.613c-5.523 5.521-14.47 5.518-19.99-.001-5.521-5.521-5.521-14.474-.001-19.995m-24.614-14.234c3.904-6.76 12.547-9.078 19.312-5.174 6.76 3.907 9.078 12.548 5.173 19.314m-24.635-14.199c-2.022 7.543-9.772 12.014-17.312 9.995-7.542-2.02-12.02-9.773-9.998-17.315"/><circle stroke="#000" stroke-miterlimit="10" cx="234" cy="180" r="27" fill="rgba(25,100,25,0.1)"/><circle stroke="#000" stroke-miterlimit="10" cx="180" cy="126" r="27" fill="rgba(25,100,25,0.1)"/><circle stroke="#000" stroke-miterlimit="10" cx="126" cy="180" r="27" fill="rgba(25,100,25,0.1)"/><circle stroke="#000" stroke-miterlimit="10" cx="180" cy="234" r="27" fill="rgba(25,100,25,0.1)"/><circle stroke="#000" stroke-miterlimit="10" cx="180" cy="180" r="15.75" fill="none"/></svg>

<svg xmlns="http://www.w3.org/2000/svg" width="360" height="360" viewBox="0 0 360 360" >
  <path fill="rgba(255,255,255,0.2)" stroke="#000" stroke-miterlimit="10" d="M165.863 72c0-7.808 6.33-14.137 14.137-14.137s14.137 6.33 14.137 14.137M165.703 72.021c2.021 7.542-2.455 15.294-9.996 17.314s-15.294-2.455-17.314-9.997M113.758 93.537c-3.904-6.76-1.587-15.407 5.174-19.311 6.762-3.904 15.407-1.587 19.312 5.175M113.629 93.636c5.521 5.521 5.521 14.473.001 19.992-5.52 5.521-14.473 5.521-19.993-.001M79.401 138.242c-6.761-3.903-9.077-12.549-5.174-19.311 3.903-6.762 12.548-9.078 19.311-5.174M79.34 138.392c7.541 2.021 12.018 9.773 9.996 17.313-2.02 7.54-9.772 12.018-17.314 9.996M72 194.137c-7.806-.001-14.135-6.33-14.136-14.138 0-7.808 6.328-14.136 14.137-14.136M72.021 194.296c7.543-2.021 15.295 2.456 17.314 9.996 2.021 7.54-2.454 15.294-9.997 17.315M93.538 246.242c-6.761 3.902-15.406 1.586-19.312-5.176-3.903-6.762-1.588-15.406 5.175-19.311M93.637 246.369c5.521-5.521 14.474-5.52 19.992 0 5.521 5.52 5.522 14.473 0 19.994M138.243 280.599c-3.902 6.761-12.549 9.077-19.312 5.173-6.762-3.904-9.078-12.549-5.174-19.312M138.393 280.658c2.021-7.543 9.775-12.016 17.313-9.996 7.541 2.02 12.019 9.773 9.997 17.316M194.137 288c.002 7.805-6.328 14.135-14.137 14.135-7.809-.002-14.137-6.328-14.137-14.139M194.297 287.975c-2.021-7.543 2.457-15.291 9.996-17.311 7.541-2.023 15.295 2.453 17.314 9.996M246.242 266.461c3.905 6.76 1.589 15.406-5.174 19.311-6.764 3.902-15.407 1.588-19.312-5.176M246.369 266.361c-5.521-5.523-5.518-14.473.002-19.99 5.519-5.523 14.473-5.523 19.992-.002M280.599 221.755c6.762 3.903 9.079 12.548 5.174 19.312-3.906 6.761-12.548 9.078-19.312 5.174M280.658 221.605c-7.543-2.021-12.014-9.773-9.993-17.312 2.019-7.543 9.772-12.02 17.313-9.998M288 165.861c7.807.001 14.135 6.327 14.137 14.138-.004 7.808-6.328 14.136-14.14 14.136M287.976 165.701c-7.544 2.021-15.29-2.456-17.311-9.995-2.022-7.542 2.454-15.296 9.996-17.316M266.462 113.754c6.761-3.902 15.404-1.587 19.312 5.176 3.9 6.764 1.588 15.406-5.178 19.312M266.361 113.629c-5.523 5.521-14.47 5.518-19.99-.001-5.521-5.521-5.521-14.474-.001-19.995M221.756 79.399c3.904-6.76 12.547-9.078 19.312-5.174 6.76 3.907 9.078 12.548 5.173 19.314M221.606 79.34c-2.022 7.543-9.772 12.014-17.312 9.995-7.542-2.02-12.02-9.773-9.998-17.315"/><circle stroke="#000" stroke-miterlimit="10" cx="234" cy="180" r="27" fill="rgba(25,100,25,0.1)"/><circle stroke="#000" stroke-miterlimit="10" cx="180" cy="126" r="27" fill="rgba(25,100,25,0.1)"/><circle stroke="#000" stroke-miterlimit="10" cx="126" cy="180" r="27" fill="rgba(25,100,25,0.1)"/><circle stroke="#000" stroke-miterlimit="10" cx="180" cy="234" r="27" fill="rgba(25,100,25,0.1)"/><circle stroke="#000" stroke-miterlimit="10" cx="180" cy="180" r="15.75" fill="none"/></svg>
